X:1
T:La Pastorale
T:La Pastorale
T:Hirtenlied * Pastoral
T:Johann Friedrich Franz Burgmüller (1806-1874) Opus 100. 
T:25 Etudes faciles 
T:by Mutopia-2013/01/12-218 - public domain
C:Johann Friedrich Franz Burgmüller (1806-1874) Opus 100.
Z:Andantino
Z:25 Etudes faciles
Z:by Mutopia-2013/01/12-218 - public domain
%%score { 1 | ( 2 3 ) }
L:1/8
Q:1/4=100
M:6/8
K:G
V:1 treble nm="Piano" snm="Pf."
V:2 bass 
V:3 bass 
V:1
"^Andantino"!p! !1!G(!2!Bc d!1!B!3!e | d!5!g!3!e dB!2!c |:!p! (d3) !1!B!2!d{/f}e | d3 (g)d!1!B | %4
 !2!A3{AB} cAB | G3) (!1!G!2!Bc | d3 !1!B!2!d{/f}e | d3 (d)Bg |"_cresc." f3 efe | d3 d'2) z :| %10
!mf! (a3 !1!c!4!ed | !1!B3) (d^c!1!d | a3 !1!c!4!ed | B3) (ded | !2!^c6 | %15
 d)!>(!!3!_e!3!e (!3!edc!>)! |!>(! !2!=B!1!cd!>)!!>(! !4!fe!1!c!>)! | !2!B3 !1!A)!4!d!3!d | %18
!p! (d3 Bd{/f}e | d3 (g)d!1!B | !2!A3{AB} cAB | G3) (!1!G!2!Bc |"_cresc." !4!d3 !1!B!2!de | %23
 d3!>(! (c)e.g!>)! |!>(! gd!1!B)!>)! (B2 A |!p! G3){/B} (AEF | G3){/B} (AEF | %27
"_dim.e poco rall." .!1!G).!2!B.!3!d .!1!g.b.d' |!pp! g'2 z z2 z |] %29
V:2
 z6 | z6 |: !5!!3!!1![G,B,D][G,B,D][G,B,D] [G,B,D]3 | [G,B,D][G,B,D][G,B,D] [G,B,D]3 | %4
 [G,CD][G,CD][G,CD] [G,CD]3 | [G,B,D][G,B,D][G,B,D] [G,B,D]3 | [G,B,D][G,B,D][G,B,D] [G,B,D]3 | %7
 [G,B,D][G,B,D][G,B,D] [G,B,D]3 |[K:treble] (A,A)A (GAG) | (FAF) D2 z :|[K:bass] z DD D3 | %11
 z DD D3 | z DD D3 | z DD D3 |[K:treble] z!>(! !2!_B!2!B (!2!B!1!AG!>)! | F6) | G3 [CE]3 | %17
 z GG F2 z |[K:bass] [G,B,D]"^dolce"[G,B,D][G,B,D] [G,B,D]3 | [G,B,D][G,B,D][G,B,D] [G,B,D]3 | %20
 [G,CD][G,CD][G,CD] [G,CD]3 | [G,B,D][G,B,D][G,B,D] [G,B,D]3 | %22
 [=F,G,B,D][F,G,B,D][F,G,B,D] [F,G,B,D]3 | [E,G,C][E,G,C][E,G,C] [E,G,C]3 | [D,G,B,]3 (D,DC) | %25
 [G,B,][G,B,D][G,B,D] [G,CD]3 | [G,B,D][G,B,D][G,B,D] [G,CD]3 | [G,B,D]2 z [G,B,D]2 z | %28
 G,,2 z z2 z |] %29
V:3
 x6 | x6 |: x6 | x6 | x6 | x6 | x6 | x6 |[K:treble] x6 | x6 :|[K:bass] [F,C]6 | [G,B,]6 | [F,C]6 | %13
 [G,B,]6 |[K:treble] x6 | x6 | x6 | D3- D2 x |[K:bass] x6 | x6 | x6 | x6 | x6 | x6 | x6 | x6 | x6 | %27
 x6 | x6 |] %29

